images/notes.svg

<svg fill="none" height="84" viewBox="0 0 308 84" width="308" xmlns="http://www.w3.org/2000/svg"><path d="m.213299 23.3825c1.576291-.8297 3.650361-1.6593 6.222201-2.4889 2.57184-.9126 5.3926-1.7008 8.4622-2.3645s6.1392-1.2029 9.2088-1.6177c3.1526-.4148 6.0563-.6222 8.7111-.6222 5.6415 0 10.4533.7466 14.4355 2.2399 3.9822 1.4104 7.0103 3.7334 9.0844 6.9689 2.157 3.2355 3.2356 7.6326 3.2356 13.1911v42.3109h-18.5422v-38.5776c0-1.5763-.2489-3.0282-.7467-4.3556-.4148-1.3274-1.0785-2.4474-1.9911-3.3599-.9125-.9956-2.157-1.7423-3.7333-2.24-1.5763-.5808-3.4844-.8711-5.7244-.8711-1.9081 0-3.8163.2488-5.7244.7466-1.9082.4148-3.36.8711-4.3556 1.3689v47.2887h-18.542101zm101.717701 59.4842c-10.6196 0-18.6254-2.8208-24.018-8.4622-5.3096-5.7245-7.9644-14.1037-7.9644-25.1377 0-11.8637 2.6963-20.3673 8.0888-25.511 5.4756-5.2267 13.44-7.84 23.8936-7.84 7.051 0 12.942 1.203 17.671 3.6089 4.812 2.3229 8.42 5.9318 10.826 10.8266 2.489 4.8948 3.734 11.2 3.734 18.9155 0 11.034-2.78 19.4132-8.338 25.1377-5.559 5.6414-13.523 8.4622-23.893 8.4622zm0-14.8089c3.069 0 5.6-.7052 7.591-2.1155 2.074-1.4933 3.609-3.6089 4.604-6.3467 1.079-2.8207 1.618-6.2636 1.618-10.3288 0-4.6459-.539-8.2963-1.618-10.9511-.995-2.7377-2.53-4.6874-4.604-5.8488-2.074-1.2445-4.605-1.8667-7.591-1.8667-3.1529 0-5.7248.6222-7.7159 1.8667-1.9911 1.2444-3.4844 3.2355-4.4799 5.9733-.9126 2.6548-1.3689 6.2637-1.3689 10.8266 0 6.3052 1.0785 11.034 3.2355 14.1866 2.24 3.0696 5.683 4.6044 10.3292 4.6044zm68.3 15.4311c-7.301 0-12.735-1.7008-16.302-5.1022-3.568-3.4845-5.351-8.3792-5.351-14.6844v-31.4843h-9.209v-14.1866h9.209v-17.297741h19.413v17.297741h13.813v14.1866h-13.813v29.1199c0 2.157.456 3.7748 1.369 4.8533.912.9955 2.447 1.4933 4.604 1.4933 1.245 0 2.614-.2489 4.107-.7467 1.493-.4977 2.738-1.12 3.733-1.8666v15.9288c-1.742.9126-3.65 1.5348-5.724 1.8667-1.991.4148-3.941.6222-5.849.6222zm51.655-.6222c-6.305 0-11.905-1.286-16.8-3.8578-4.812-2.6548-8.587-6.3881-11.324-11.2-2.655-4.8948-3.983-10.7021-3.983-17.4221 0-10.9511 2.697-19.4133 8.089-25.3866 5.476-6.0562 13.274-9.0844 23.396-9.0844 6.968 0 12.568 1.4934 16.8 4.48 4.314 2.9867 7.466 7.3422 9.457 13.0666s2.945 12.6933 2.863 20.9066h-47.911l-1.991-11.8222h34.595l-2.738 5.8489c-.083-6.72-1.037-11.4489-2.862-14.1866-1.825-2.7378-4.812-4.1067-8.96-4.1067-2.323 0-4.439.5808-6.347 1.7422-1.825 1.1615-3.277 3.1111-4.355 5.8489-.996 2.6548-1.494 6.3467-1.494 11.0755 0 5.9733 1.411 10.5778 4.232 13.8133 2.903 3.2355 7.508 4.8533 13.813 4.8533 2.323 0 4.604-.2489 6.844-.7467 2.323-.5807 4.48-1.2444 6.471-1.9911 1.991-.7466 3.692-1.4103 5.103-1.9911v15.9289c-2.987 1.2444-6.347 2.24-10.08 2.9866-3.651.8296-7.923 1.2445-12.818 1.2445zm57.558 0c-4.48 0-8.338-.4978-11.573-1.4934-3.153-.9126-6.139-1.9496-8.96-3.1111v-16.3021c1.742 1.1615 3.692 2.3644 5.849 3.6089 2.157 1.1614 4.521 2.1155 7.093 2.8622 2.655.7466 5.434 1.12 8.338 1.12 2.986 0 5.06-.4978 6.222-1.4934 1.244-1.0785 1.867-2.3644 1.867-3.8577 0-1.4104-.623-2.5304-1.867-3.36-1.244-.9126-2.862-1.6593-4.853-2.24s-4.107-1.12-6.347-1.6178c-1.991-.4148-3.982-1.037-5.973-1.8666-1.991-.9126-3.775-2.1156-5.351-3.6089-1.577-1.4933-2.863-3.3185-3.858-5.4755-.913-2.24-1.369-4.9363-1.369-8.0889 0-4.0652.788-7.4252 2.364-10.08 1.577-2.7377 3.651-4.9362 6.223-6.5955 2.571-1.6592 5.351-2.8207 8.337-3.4844 2.987-.7467 5.891-1.0785 8.711-.9956 5.144.166 9.209.7467 12.196 1.7422 3.07.9126 5.849 2.1156 8.338 3.6089v14.56c-2.821-1.5763-5.642-3.0282-8.463-4.3556-2.737-1.4103-5.89-2.1155-9.457-2.1155-3.236 0-5.559.4977-6.969 1.4933s-2.116 2.323-2.116 3.9822c0 1.5763.457 2.8207 1.369 3.7333.996.9126 2.282 1.6593 3.858 2.24 1.576.4978 3.318.9956 5.227 1.4933 2.074.4978 4.189 1.12 6.346 1.8667 2.24.6637 4.314 1.6593 6.222 2.9867 1.992 1.2444 3.568 3.0281 4.729 5.351 1.245 2.24 1.867 5.2267 1.867 8.96-.083 5.0607-1.452 9.1259-4.107 12.1955-2.654 2.9867-6.097 5.1437-10.329 6.4711-4.148 1.2444-8.669 1.8667-13.564 1.8667z" fill="#000" opacity=".04"/></svg>

<svg width="308" height="84" viewBox="0 0 308 84" fill="none" xmlns="http://www.w3.org/2000/svg">
<path opacity="0.04" d="M0.213299 23.3825C1.78959 22.5528 3.86366 21.7232 6.4355 20.8936C9.00734 19.981 11.8281 19.1928 14.8977 18.5291C17.9673 17.8654 21.0369 17.3262 24.1065 16.9114C27.2591 16.4966 30.1628 16.2892 32.8176 16.2892C38.4591 16.2892 43.2709 17.0358 47.2531 18.5291C51.2353 19.9395 54.2634 22.2625 56.3375 25.498C58.4945 28.7335 59.5731 33.1306 59.5731 38.6891V81H41.0309V42.4224C41.0309 40.8461 40.782 39.3942 40.2842 38.0668C39.8694 36.7394 39.2057 35.6194 38.2931 34.7069C37.3806 33.7113 36.1361 32.9646 34.5598 32.4669C32.9835 31.8861 31.0754 31.5958 28.8354 31.5958C26.9273 31.5958 25.0191 31.8446 23.111 32.3424C21.2028 32.7572 19.751 33.2135 18.7554 33.7113V81H0.213299V23.3825ZM101.931 82.8667C91.3114 82.8667 83.3056 80.0459 77.913 74.4045C72.6034 68.68 69.9486 60.3008 69.9486 49.2668C69.9486 37.4031 72.6449 28.8995 78.0374 23.7558C83.513 18.5291 91.4774 15.9158 101.931 15.9158C108.982 15.9158 114.873 17.1188 119.602 19.5247C124.414 21.8476 128.022 25.4565 130.428 30.3513C132.917 35.2461 134.162 41.5513 134.162 49.2668C134.162 60.3008 131.382 68.68 125.824 74.4045C120.265 80.0459 112.301 82.8667 101.931 82.8667ZM101.931 68.0578C105 68.0578 107.531 67.3526 109.522 65.9423C111.596 64.449 113.131 62.3334 114.126 59.5956C115.205 56.7749 115.744 53.332 115.744 49.2668C115.744 44.6209 115.205 40.9705 114.126 38.3157C113.131 35.578 111.596 33.6283 109.522 32.4669C107.448 31.2224 104.917 30.6002 101.931 30.6002C98.7781 30.6002 96.2062 31.2224 94.2151 32.4669C92.224 33.7113 90.7307 35.7024 89.7352 38.4402C88.8226 41.095 88.3663 44.7039 88.3663 49.2668C88.3663 55.572 89.4448 60.3008 91.6018 63.4534C93.8418 66.523 97.2848 68.0578 101.931 68.0578ZM170.231 83.4889C162.93 83.4889 157.496 81.7881 153.929 78.3867C150.361 74.9022 148.578 70.0075 148.578 63.7023V32.218H139.369V18.0314H148.578V0.733659H167.991V18.0314H181.804V32.218H167.991V61.3379C167.991 63.4949 168.447 65.1127 169.36 66.1912C170.272 67.1867 171.807 67.6845 173.964 67.6845C175.209 67.6845 176.578 67.4356 178.071 66.9378C179.564 66.4401 180.809 65.8178 181.804 65.0712V81C180.062 81.9126 178.154 82.5348 176.08 82.8667C174.089 83.2815 172.139 83.4889 170.231 83.4889ZM221.886 82.8667C215.581 82.8667 209.981 81.5807 205.086 79.0089C200.274 76.3541 196.499 72.6208 193.762 67.8089C191.107 62.9141 189.779 57.1068 189.779 50.3868C189.779 39.4357 192.476 30.9735 197.868 25.0002C203.344 18.944 211.142 15.9158 221.264 15.9158C228.232 15.9158 233.832 17.4092 238.064 20.3958C242.378 23.3825 245.53 27.738 247.521 33.4624C249.512 39.1868 250.466 46.1557 250.384 54.369H202.473L200.482 42.5468H235.077L232.339 48.3957C232.256 41.6757 231.302 36.9468 229.477 34.2091C227.652 31.4713 224.665 30.1024 220.517 30.1024C218.194 30.1024 216.078 30.6832 214.17 31.8446C212.345 33.0061 210.893 34.9557 209.815 37.6935C208.819 40.3483 208.321 44.0402 208.321 48.769C208.321 54.7423 209.732 59.3468 212.553 62.5823C215.456 65.8178 220.061 67.4356 226.366 67.4356C228.689 67.4356 230.97 67.1867 233.21 66.6889C235.533 66.1082 237.69 65.4445 239.681 64.6978C241.672 63.9512 243.373 63.2875 244.784 62.7067V78.6356C241.797 79.88 238.437 80.8756 234.704 81.6222C231.053 82.4518 226.781 82.8667 221.886 82.8667ZM279.444 82.8667C274.964 82.8667 271.106 82.3689 267.871 81.3733C264.718 80.4607 261.732 79.4237 258.911 78.2622V61.9601C260.653 63.1216 262.603 64.3245 264.76 65.569C266.917 66.7304 269.281 67.6845 271.853 68.4312C274.508 69.1778 277.287 69.5512 280.191 69.5512C283.177 69.5512 285.251 69.0534 286.413 68.0578C287.657 66.9793 288.28 65.6934 288.28 64.2001C288.28 62.7897 287.657 61.6697 286.413 60.8401C285.169 59.9275 283.551 59.1808 281.56 58.6001C279.569 58.0194 277.453 57.4801 275.213 56.9823C273.222 56.5675 271.231 55.9453 269.24 55.1157C267.249 54.2031 265.465 53.0001 263.889 51.5068C262.312 50.0135 261.026 48.1883 260.031 46.0313C259.118 43.7913 258.662 41.095 258.662 37.9424C258.662 33.8772 259.45 30.5172 261.026 27.8624C262.603 25.1247 264.677 22.9262 267.249 21.2669C269.82 19.6077 272.6 18.4462 275.586 17.7825C278.573 17.0358 281.477 16.704 284.297 16.7869C289.441 16.9529 293.506 17.5336 296.493 18.5291C299.563 19.4417 302.342 20.6447 304.831 22.138V36.698C302.01 35.1217 299.189 33.6698 296.368 32.3424C293.631 30.9321 290.478 30.2269 286.911 30.2269C283.675 30.2269 281.352 30.7246 279.942 31.7202C278.532 32.7158 277.826 34.0432 277.826 35.7024C277.826 37.2787 278.283 38.5231 279.195 39.4357C280.191 40.3483 281.477 41.095 283.053 41.6757C284.629 42.1735 286.371 42.6713 288.28 43.169C290.354 43.6668 292.469 44.289 294.626 45.0357C296.866 45.6994 298.94 46.695 300.848 48.0224C302.84 49.2668 304.416 51.0505 305.577 53.3734C306.822 55.6134 307.444 58.6001 307.444 62.3334C307.361 67.3941 305.992 71.4593 303.337 74.5289C300.683 77.5156 297.24 79.6726 293.008 81C288.86 82.2444 284.339 82.8667 279.444 82.8667Z" fill="black"/>
</svg>
